X: 17
T: The Mountain Road
C:Michael Gorman (1895-1970)
R:reel
M:C|
L:1/8
F:http://www.arcelts.com/bbot1/t483.abc	 2007-02-11 11:16:23 UT
K:D
DE|"D"F2 AF BFAF|F2 AF "A"EFDE|"D"F2 AF BFAF|"G"GEFD EDB,D|
"D"F2 AF BFAF|F2 AF "A"EFDE|"D"FAAA "(Bm)"BAFB|"A"ABde "D"fd d2||
"D"dcdB ADFA|dcde fgfe|d2dB AFDF|"G"GEFD EDB,A|
"D"dcdB ADFA|dcde fgfe|d2dB ADFA|"G"GEFD EDB,D|]


